images/icons/logo 2.svg

<svg width="40" height="52" viewBox="0 0 40 52" fill="none" xmlns="http://www.w3.org/2000/svg">
<path d="M16.977 2.93452H17.1136C17.3666 2.93452 17.6398 2.95995 17.9105 2.98284C19.1031 3.06695 20.2873 3.24551 21.4521 3.51685V0.653528C20.2528 0.352628 19.0297 0.157776 17.7966 0.0712015C17.3286 0.0356008 16.8303 0.0127146 16.3193 0H15.8917C13.4168 0.00930695 10.9526 0.327052 8.55554 0.945963C5.8253 1.62687 3.20466 2.69275 0.771576 4.11189V32.5086C3.1143 31.2357 5.60713 30.2643 8.19126 29.6173C10.2316 29.0967 12.3175 28.7765 14.4194 28.6612H14.5029C14.8546 28.6434 15.2062 28.6332 15.5679 28.6306V25.7216C12.8367 25.7567 10.1193 26.1178 7.47282 26.7972C6.49381 27.0515 5.5477 27.3261 4.65976 27.6313L3.64787 27.9746V5.83344L4.08046 5.62492C7.38168 4.05951 10.9522 3.14863 14.5965 2.94215C14.6268 2.93994 14.6573 2.93994 14.6876 2.94215C15.0898 2.92181 15.4946 2.91163 15.8917 2.91163H16.3269H16.3471C16.5571 2.91672 16.767 2.92181 16.977 2.93452Z" fill="#AFB1B8"/>
<path d="M24.1108 5.93259C23.4455 5.93259 22.7878 5.9097 22.1528 5.86138C21.3939 5.80544 20.6147 5.7139 19.8761 5.58929C19.4258 5.51301 18.9831 5.42146 18.553 5.32229V33.3935C20.3737 33.8443 22.2433 34.0647 24.1184 34.0496C26.5931 34.0395 29.0571 33.7227 31.4546 33.1061C34.1853 32.4243 36.8067 31.3585 39.2411 29.9402V2.04956C36.8986 3.32178 34.4069 4.29396 31.8239 4.94339C29.3032 5.59083 26.7125 5.92307 24.1108 5.93259ZM35.3352 6.41828L36.3471 6.07753V28.2263L35.9145 28.4348C34.2552 29.2243 32.5224 29.8469 30.7412 30.2937C28.5782 30.8533 26.3545 31.1412 24.1209 31.1506C23.4531 31.1506 22.7903 31.1227 22.1477 31.0667L21.4546 31.0057V28.3178V8.22883L22.2616 8.28224C22.8485 8.32038 23.4556 8.33818 24.1159 8.33818C26.9514 8.3281 29.7749 7.96596 32.5221 7.25998C33.4657 7.01078 34.4043 6.73106 35.3352 6.41828Z" fill="#AFB1B8"/>
<path d="M2.73716 42.2124C2.59169 42.0615 2.41632 41.943 2.22239 41.8646C2.02847 41.7862 1.82032 41.7496 1.61144 41.7572C1.38882 41.7542 1.16784 41.7957 0.961298 41.8793C0.771932 41.9547 0.599797 42.068 0.455353 42.2124C0.312481 42.3572 0.201322 42.5304 0.129018 42.721C0.0497097 42.9207 0.010173 43.1341 0.012651 43.3491V47.1431C0.00360335 47.4104 0.0546187 47.6764 0.161905 47.9212C0.251463 48.1156 0.380755 48.2889 0.541363 48.4298C0.692984 48.5575 0.871009 48.6495 1.06249 48.6994C1.24697 48.7512 1.43759 48.7777 1.62914 48.7782C1.84044 48.7803 2.04956 48.7351 2.24134 48.646C2.43098 48.563 2.6028 48.4438 2.74728 48.295C2.88817 48.1476 3.00055 47.9752 3.07868 47.7864C3.15976 47.5951 3.20108 47.3892 3.2001 47.1812V46.7566H2.20845V47.0948C2.2114 47.2103 2.19163 47.3252 2.15027 47.433C2.11797 47.5137 2.0688 47.5866 2.00607 47.6466C1.94464 47.6962 1.87419 47.7334 1.79864 47.7559C1.73167 47.7782 1.66173 47.7902 1.5912 47.7915C1.50266 47.8018 1.41299 47.7885 1.33125 47.7527C1.24951 47.717 1.17861 47.6602 1.12573 47.5881C1.03225 47.4356 0.986426 47.2585 0.994184 47.0795V43.5423C0.988032 43.3462 1.02972 43.1515 1.11561 42.9753C1.16709 42.8952 1.23993 42.8313 1.32581 42.7908C1.41169 42.7503 1.50716 42.7349 1.60132 42.7464C1.68679 42.7434 1.77173 42.7612 1.84884 42.7984C1.92594 42.8356 1.99292 42.8911 2.04402 42.96C2.15499 43.1057 2.21301 43.2852 2.20845 43.4686V43.7966H3.18998V43.4101C3.19198 43.1831 3.15076 42.9578 3.06856 42.7464C2.9953 42.5476 2.88254 42.3659 2.73716 42.2124Z" fill="#AFB1B8"/>
<path d="M8.62889 42.1691C8.31268 41.9021 7.91359 41.7546 7.50063 41.7521C7.29865 41.7529 7.09835 41.7891 6.90867 41.8589C6.7161 41.9279 6.53838 42.0332 6.38502 42.1691C6.22073 42.3168 6.08965 42.498 6.0005 42.7006C5.9006 42.9323 5.85143 43.183 5.85631 43.4355V47.0744C5.84947 47.3304 5.8987 47.5847 6.0005 47.8195C6.09025 48.0151 6.22149 48.1887 6.38502 48.328C6.53662 48.4688 6.71465 48.5777 6.90867 48.6485C7.09835 48.7183 7.29865 48.7544 7.50063 48.7553C7.70266 48.7549 7.90304 48.7187 8.09259 48.6485C8.28992 48.5767 8.47192 48.468 8.62889 48.328C8.78707 48.1861 8.91451 48.013 9.00329 47.8195C9.10509 47.5847 9.15432 47.3304 9.14748 47.0744V43.4355C9.15236 43.183 9.10319 42.9323 9.00329 42.7006C8.91502 42.5001 8.78772 42.3194 8.62889 42.1691ZM8.16595 47.0744C8.1743 47.1714 8.16092 47.269 8.12677 47.3601C8.09262 47.4512 8.03858 47.5334 7.96863 47.6008C7.83765 47.7106 7.67248 47.7708 7.5019 47.7708C7.33131 47.7708 7.16614 47.7106 7.03516 47.6008C6.96521 47.5334 6.91117 47.4512 6.87702 47.3601C6.84287 47.269 6.82948 47.1714 6.83784 47.0744V43.4355C6.82948 43.3385 6.84287 43.2409 6.87702 43.1498C6.91117 43.0587 6.96521 42.9764 7.03516 42.9091C7.16614 42.7993 7.33131 42.7391 7.5019 42.7391C7.67248 42.7391 7.83765 42.7993 7.96863 42.9091C8.03858 42.9764 8.09262 43.0587 8.12677 43.1498C8.16092 43.2409 8.1743 43.3385 8.16595 43.4355V47.0744Z" fill="#AFB1B8"/>
<path d="M16.3673 48.6994V41.8107H15.4136L14.1614 45.4572H14.1437L12.8814 41.8107H11.9378V48.6994H12.9218V44.5087H12.9395L13.9034 47.4712H14.3941L15.3656 44.5087H15.3833V48.6994H16.3673Z" fill="#AFB1B8"/>
<path d="M21.958 42.2937C21.8065 42.1237 21.6152 41.9943 21.4015 41.9173C21.1712 41.8424 20.9301 41.8063 20.6881 41.8105H19.2259V48.6993H20.2074V46.0089H20.7134C21.0196 46.0228 21.3243 45.958 21.5988 45.8207C21.8219 45.6968 22.008 45.515 22.1376 45.2943C22.2512 45.1111 22.3277 44.9071 22.3628 44.6942C22.4014 44.435 22.4192 44.173 22.4159 43.911C22.4254 43.5802 22.3931 43.2495 22.3197 42.9269C22.2543 42.6885 22.1298 42.4706 21.958 42.2937ZM21.452 44.3941C21.4478 44.5188 21.4167 44.6412 21.361 44.7527C21.3049 44.8586 21.2161 44.9434 21.108 44.9942C20.9626 45.0593 20.804 45.0889 20.6451 45.0807H20.1973V42.7387H20.7032C20.8556 42.7312 21.0075 42.7609 21.146 42.8251C21.2474 42.8834 21.328 42.9724 21.3762 43.0794C21.4298 43.2004 21.459 43.331 21.4622 43.4634C21.4622 43.6084 21.4622 43.7609 21.4622 43.9211C21.4622 44.0813 21.4723 44.2466 21.4622 44.3941H21.452Z" fill="#AFB1B8"/>
<path d="M26.6076 41.8107H25.8032L24.2853 48.6994H25.2669L25.5553 47.2194H26.8935L27.1819 48.6994H28.1634L26.6076 41.8107ZM25.702 46.2811L26.1852 43.784H26.2029L26.6835 46.2811H25.702Z" fill="#AFB1B8"/>
<path d="M32.9497 45.9607H32.932L31.4495 41.8107H30.506V48.6994H31.4875V44.557H31.5077L33.0078 48.6994H33.9312V41.8107H32.9497V45.9607Z" fill="#AFB1B8"/>
<path d="M38.9476 41.8107L38.1584 44.5494H38.1381L37.3489 41.8107H36.3091L37.6575 45.7878V48.6994H38.639V45.7878L39.9874 41.8107H38.9476Z" fill="#AFB1B8"/>
<path d="M0 50.6445H0.473058V51.9719H0.794333V50.6445H1.26486V50.3724H0V50.6445Z" fill="#AFB1B8"/>
<path d="M3.97672 50.3724L3.35693 51.9719H3.69845L3.82999 51.6083H4.46748L4.60409 51.9719H4.95319L4.31823 50.3724H3.97672ZM3.92612 51.3387L4.14368 50.7462L4.36123 51.3387H3.92612Z" fill="#AFB1B8"/>
<path d="M7.90793 51.3821H8.27727V51.5881C8.16941 51.6746 8.03576 51.722 7.89781 51.7229C7.8333 51.7265 7.76886 51.7145 7.70988 51.688C7.65091 51.6614 7.59911 51.6211 7.55883 51.5703C7.47402 51.4485 7.43217 51.3017 7.43993 51.1533C7.43993 50.7973 7.59424 50.6193 7.90034 50.6193C7.98091 50.6112 8.06168 50.6325 8.12804 50.6791C8.19439 50.7257 8.24194 50.7947 8.26209 50.8735L8.57831 50.8125C8.51001 50.4997 8.28486 50.3421 7.90034 50.3421C7.69468 50.3366 7.4947 50.4103 7.34127 50.5481C7.26069 50.6276 7.19834 50.7239 7.15858 50.8302C7.11882 50.9365 7.10261 51.0502 7.11107 51.1634C7.10175 51.3823 7.17493 51.5966 7.31598 51.7636C7.39434 51.8444 7.4892 51.9071 7.59401 51.9475C7.69883 51.9879 7.8111 52.0049 7.92311 51.9975C8.17338 52.0045 8.41652 51.9133 8.60108 51.7432V51.1126H7.90793V51.3821Z" fill="#AFB1B8"/>
<path d="M11.9226 50.3724H11.5988V51.9719H12.7195V51.6998H11.9226V50.3724Z" fill="#AFB1B8"/>
<path d="M15.3175 50.3724H14.9937V51.9719H15.3175V50.3724Z" fill="#AFB1B8"/>
<path d="M18.6365 51.4405L17.9813 50.3724H17.6676V51.9719H17.9686V50.9268L18.6112 51.9719H18.9325V50.3724H18.6365V51.4405Z" fill="#AFB1B8"/>
<path d="M21.6367 51.2675H22.4336V50.9954H21.6367V50.6445H22.4943V50.3724H21.3129V51.9719H22.5272V51.6998H21.6367V51.2675Z" fill="#AFB1B8"/>
<path d="M28.9122 51.0031H28.2823V50.3724H27.961V51.9719H28.2823V51.2726H28.9122V51.9719H29.2335V50.3724H28.9122V51.0031Z" fill="#AFB1B8"/>
<path d="M31.9302 51.2675H32.7296V50.9954H31.9302V50.6445H32.7903V50.3724H31.6089V51.9719H32.8207V51.6998H31.9302V51.2675Z" fill="#AFB1B8"/>
<path d="M36.0233 51.2676C36.3016 51.2244 36.4432 51.0769 36.4432 50.8226C36.4513 50.7546 36.441 50.6856 36.4134 50.623C36.3858 50.5603 36.3419 50.5063 36.2864 50.4666C36.1415 50.3938 35.9799 50.3614 35.8184 50.3725H35.1404V51.972H35.4617V51.3032H35.5249C35.5934 51.299 35.6619 51.3112 35.7248 51.3388C35.7717 51.3678 35.8108 51.4079 35.8386 51.4558L36.1877 51.9644H36.5722L36.3774 51.6516C36.2913 51.4972 36.17 51.3656 36.0233 51.2676ZM35.6995 51.0464H35.4617V50.6446H35.7147C35.8249 50.6357 35.9358 50.6486 36.041 50.6827C36.0644 50.7034 36.0828 50.7291 36.095 50.7579C36.1072 50.7867 36.1127 50.8179 36.1113 50.8492C36.1098 50.8804 36.1014 50.911 36.0866 50.9385C36.0718 50.966 36.051 50.9899 36.0258 51.0082C35.9202 51.0406 35.8097 51.0535 35.6995 51.0464Z" fill="#AFB1B8"/>
<path d="M39.1095 51.2675H39.9064V50.9954H39.1095V50.6445H39.9696V50.3724H38.7857V51.9719H40V51.6998H39.1095V51.2675Z" fill="#AFB1B8"/>
</svg>

<svg width="40" height="52" fill="none" xmlns="http://www.w3.org/2000/svg"><path d="M16.98 2.93h.13c.26 0 .53.03.8.05 1.2.09 2.38.27 3.54.54V.65A21.09 21.09 0 0016.32 0h-.43c-2.47 0-4.94.33-7.33.95A29.73 29.73 0 00.77 4.1v28.4a32.36 32.36 0 0113.65-3.85h.08c.35-.02.7-.03 1.07-.03v-2.9a34.33 34.33 0 00-10.91 1.9l-1.01.34V5.83l.43-.2A28.28 28.28 0 0115.89 2.9h.46l.63.02z" fill="#AFB1B8"/><path d="M24.11 5.93a25.91 25.91 0 01-5.56-.6v28.06c1.82.45 3.7.67 5.57.66 2.47-.01 4.94-.33 7.33-.94a29.81 29.81 0 007.8-3.17V2.05a31.77 31.77 0 01-7.43 2.9c-2.52.64-5.1.97-7.7.98zm11.23.49l1-.34v22.15l-.43.2a27.76 27.76 0 01-13.76 2.64l-.7-.06V8.23l.81.05a34.26 34.26 0 0013.07-1.86zM2.74 42.21a1.5 1.5 0 00-1.13-.45c-.22 0-.44.04-.65.12a1.5 1.5 0 00-.95 1.47v3.8c0 .26.04.53.15.77.1.2.22.37.38.51.15.13.33.22.52.27.19.05.38.08.57.08a1.6 1.6 0 001.57-1.6v-.42h-1v.33c.01.12 0 .24-.05.34a.6.6 0 01-.14.22.7.7 0 01-.41.14.5.5 0 01-.47-.2.9.9 0 01-.14-.51v-3.54c0-.2.04-.39.13-.56a.5.5 0 01.48-.23.53.53 0 01.44.21.8.8 0 01.17.5v.34h.98v-.39a1.79 1.79 0 00-.45-1.2zM8.63 42.17a1.77 1.77 0 00-1.72-.31c-.2.07-.37.17-.52.3-.17.16-.3.34-.39.54-.1.23-.15.48-.14.74v3.63c-.01.26.04.51.14.75.09.2.22.37.39.5.15.15.32.26.52.33a1.74 1.74 0 001.18 0 1.55 1.55 0 001.05-1.57v-3.64a1.64 1.64 0 00-.52-1.27zm-.46 4.9a.65.65 0 01-.2.53.73.73 0 01-.93 0 .65.65 0 01-.2-.53v-3.63a.65.65 0 01.2-.53.73.73 0 01.93 0 .65.65 0 01.2.53v3.63zM16.37 48.7V41.8h-.96l-1.25 3.65h-.02l-1.26-3.65h-.94v6.89h.98v-4.2h.02l.96 2.97h.5l.97-2.96h.01v4.19h.99zM21.96 42.3c-.15-.18-.34-.3-.56-.38a2.18 2.18 0 00-.71-.11h-1.46v6.89h.98V46h.5c.31.02.61-.04.89-.18a1.65 1.65 0 00.76-1.13 4.9 4.9 0 00-.04-1.76 1.47 1.47 0 00-.36-.64zm-.5 2.1c-.01.12-.04.24-.1.35-.06.1-.14.2-.25.24a1 1 0 01-.46.1h-.45v-2.35h.5c.16 0 .3.02.45.09.1.05.18.14.23.25a1 1 0 01.08.38V44.4zM26.6 41.81h-.8L24.3 48.7h.98l.29-1.48h1.33l.3 1.48h.97l-1.55-6.89zm-.9 4.47l.49-2.5h.01l.48 2.5h-.98zM32.95 45.96h-.02l-1.48-4.15h-.94v6.89h.98v-4.14h.02L33 48.7h.92V41.8h-.98v4.15zM38.95 41.81l-.8 2.74h-.01l-.8-2.74h-1.03l1.35 3.98v2.9h.98v-2.9l1.35-3.98h-1.04zM0 50.64h.47v1.33H.8v-1.33h.47v-.27H0v.27zM3.98 50.37l-.62 1.6h.34l.13-.36h.64l.13.36h.35l-.63-1.6h-.34zm-.05.97l.21-.6.22.6h-.43zM7.9 51.38h.38v.2a.61.61 0 01-.38.14.4.4 0 01-.34-.15.67.67 0 01-.12-.42c0-.35.15-.53.46-.53a.34.34 0 01.36.25l.32-.06c-.07-.31-.3-.47-.68-.47a.8.8 0 00-.56.2.78.78 0 00-.23.62c0 .22.06.44.2.6a.78.78 0 00.61.24c.25 0 .5-.09.68-.26v-.63h-.7v.27zM11.92 50.37h-.32v1.6h1.12v-.27h-.8v-1.33zM15.32 50.37h-.33v1.6h.33v-1.6zM18.64 51.44l-.66-1.07h-.31v1.6h.3v-1.04l.64 1.04h.32v-1.6h-.3v1.07zM21.64 51.27h.8V51h-.8v-.36h.85v-.27h-1.18v1.6h1.22v-.27h-.9v-.43zM28.91 51h-.63v-.63h-.32v1.6h.32v-.7h.63v.7h.32v-1.6h-.32V51zM31.93 51.27h.8V51h-.8v-.36h.86v-.27h-1.18v1.6h1.21v-.27h-.89v-.43zM36.02 51.27c.28-.05.42-.2.42-.45a.38.38 0 00-.15-.35.9.9 0 00-.47-.1h-.68v1.6h.32v-.67h.06c.07 0 .14.01.2.04.05.03.1.07.12.12l.35.5h.38l-.2-.3c-.08-.16-.2-.3-.35-.4zm-.32-.22h-.24v-.4h.25c.11-.01.23 0 .33.03a.2.2 0 01-.01.33.91.91 0 01-.33.04zM39.1 51.27h.8V51h-.8v-.36h.87v-.27h-1.18v1.6H40v-.27h-.9v-.43z" fill="#AFB1B8"/></svg>
